X: 559
T: Dil Bir Güzele Meyletti Hele
C: Dede Efendi
O: Turkey
F: http://compmusic.upf.edu/node/140
N: rast--sarki--senginsemai--dil_bir--dede_efendi
N: makam= rast
N: form= sarki
N: usul= senginsemai = 6/4
M: 6/4
L: 1/16
K: C _1/4B ^f  
Q: 1/4=66
%%MIDI tuningsystem comma53
G4 B4 d2ef agfe d4 z4  | dcec c3B BA{c}BA AGAG G6z2  | 
w:  ARANAĞME  |   | 
G4 B4 d2ef agfe d4 z4  | dcec c3B BA{c}BA AGAG G6z2  | 
w:  ARANAĞME  |   | 
G3A B2AG c2BA Bc/d/cB B6d2  | d4 d4 d4 ^cde{f}e/d/ d6z2  | 
w:  Dil  *  bir  *  *  gü *  *  ze *  *  *  *  le   |  meyl_ et ti  he *  *  *  *  *  le    | 
d3A d4 defg agfe d4 z4  | d3A d4 defg agfe d8  | 
w:  Fâş  *  et me  *  *  *  e *  *  *  le   |  fâş  *  et me  *  *  *  e *  *  *  le    | 
dcec c3B B3A AG{B}AG G6z2  | c'3b baag gffe agfe d6c'2  | 
w:  Sev *  *  *  dim  *  ben  *  se *  *  *  *  ni   |  gel  *  gel  *  gel  *  dil  *  sev *  di  *  se *  ni    | 
c'3b baag gffe agfe d8  | e2{f}ed c4 g2{a}gf agfe d8  | 
w:  Gel  *  gel  *  gel  *  dil  *  sev *  di  *  se *  ni   |  a *  *  *  man  rû *  yin *  de  *  be *  ni    | 
e2{f}ed c4 g2g2 agfe d6z2  | dcec c3B B3A AGAG G6z2  | 
w:  A *  *  *  man  ol  sim  ger *  de *  ni   |  yak *  *  *  tın  *  *  *  ben *  de *  ni    | 
G4 B4 d2ef agfe d4 z4  | dcec c3B BA{c}BA AGAG G6z2  | 
w:  ARANAĞME  |   | 
G4 B4 d2ef agfe d4 z4  | dcec c3B BA{c}BA AGAG G6z2  | 
w:  ARANAĞME  |   | 
G3A B2AG c2BA Bc/d/cB B6d2  | d4 d4 d4 ^cde{f}e/d/ d6z2  | 
w:  Dil  *  bir  *  *  gü *  *  ze *  *  *  *  le   |  meyl_ et ti  he *  *  *  *  *  le    | 
d3A d4 defg agfe d4 z4  | d3A d4 defg agfe d8  | 
w:  Fâş  *  et me  *  *  *  e *  *  *  le   |  fâş  *  et me  *  *  *  e *  *  *  le    | 
dcec c3B B3A AG{B}AG G6z2  | c'3b baag gffe agfe d6c'2  | 
w:  Sev *  *  *  dim  *  ben  *  se *  *  *  *  ni   |  gel  *  gel  *  gel  *  dil  *  sev *  di  *  se *  ni    | 
c'3b baag gffe agfe d8  | e2{f}ed c4 g2{a}gf agfe d8  | 
w:  Gel  *  gel  *  gel  *  dil  *  sev *  di  *  se *  ni   |  a *  *  *  man  rû *  yin *  de  *  be *  ni    | 
e2{f}ed c4 g2g2 agfe d6z2  | dcec c3B B3A AGAG G6z2  | 
w:  A *  *  *  man  ol  sim  ger *  de *  ni   |  yak *  *  *  tın  *  *  *  ben *  de *  ni    | 
|


